X:261
T: Feierabend (3-63), S. 181
N: P1036
O: Lothringen
S: PINCK, Louis: Verklingende Weisen, Bd3, Metz 1933]
R: Liebe, Fenstergang, Verfhrung]
M: 3/4
L: 1/16
K: G
A3G | G4D4B3B | B4G4
B2c2 | d4d4c2A2 | B8
d2c2 | B4d4e2c2 | B2c2d4
B2A2 | G2A2B4A3A | G8
d2c2 | B4d4e2c2 | B2c2d4
B2A2 | G2A2B4A3A | G8

